;FLAVOR:Marlin
;TIME:1652
;Filament used: 1.36574m
;Layer height: 0.2
;MINX:101.676
;MINY:97.2
;MINZ:0.2
;MAXX:142.8
;MAXY:122.8
;MAXZ:11.2
;TARGET_MACHINE.NAME:Anycubic Kobra
;Generated with Cura_SteamEngine 5.6.0
M140 S60
M105
M190 S60
M104 S200
M105
M109 S200
M82 ;absolute extrusion mode
G28 ;Home
G1 Z15.0 F1200 ;Move the platform down 15mm
;Prime the extruder
G92 E0
G1 F200 E3
G92 E0
G92 E0
G92 E0
G1 F2400 E-6
;LAYER_COUNT:56
;LAYER:0
M107
M204 S2000
M205 X10 Y10
G0 F3000 X102.683 Y99.421 Z0.2
M204 S1000
M205 X8 Y8
;TYPE:SKIRT
G1 F2400 E0
G1 X103.407 Y98.838 E0.03092
G1 X104.399 Y98.344 E0.06778
G1 X105.302 Y98.212 E0.09813
G1 X121.681 Y98.2 E0.6429
G1 X122.762 Y98.422 E0.6796
G1 X123.67 Y98.905 E0.71381
G1 X124.053 Y99.207 E0.73003
G1 X124.658 Y99.956 E0.76205
G1 X125 Y99.867 E0.77381
G1 X126.231 Y99.791 E0.81483
G1 X126.395 Y99.806 E0.82031
G1 X126.453 Y99.616 E0.82691
G1 X126.902 Y98.788 E0.85824
G1 X127.522 Y98.115 E0.88868
G1 X128.443 Y97.523 E0.92509
G1 X129.571 Y97.217 E0.96397
G1 X130.636 Y97.278 E0.99945
G1 X131.358 Y97.474 E1.02433
G1 X132.271 Y97.941 E1.05844
G1 X133.006 Y98.663 E1.0927
G1 X133.306 Y99.096 E1.11023
G1 X133.616 Y99.831 E1.13676
G1 X134.246 Y99.792 E1.15775
G1 X134.431 Y99.81 E1.16393
G1 X134.775 Y98.933 E1.19527
G1 X135.453 Y98.202 E1.22843
G1 X135.99 Y97.767 E1.25141
G1 X136.919 Y97.314 E1.28579
G1 X137.623 Y97.208 E1.30947
G1 X139.203 Y97.2 E1.36202
G1 X140.286 Y97.422 E1.39879
G1 X141.194 Y97.905 E1.433
G1 X141.579 Y98.207 E1.44927
G1 X142.162 Y98.931 E1.48019
G1 X142.658 Y99.926 E1.51717
G1 X142.8 Y101.013 E1.55363
G1 X142.779 Y102.255 E1.59494
G1 X142.621 Y103.22 E1.62746
G1 X141.936 Y104.43 E1.67371
G1 X140.99 Y105.235 E1.71503
G1 X140.17 Y105.574 E1.74454
G1 X140.192 Y106.395 E1.77185
G1 X141.058 Y106.777 E1.80333
G1 X141.93 Y107.555 E1.8422
G1 X142.537 Y108.505 E1.8797
G1 X142.794 Y109.735 E1.92149
G1 X142.717 Y110.669 E1.95266
G1 X142.53 Y111.367 E1.9767
G1 X142.047 Y112.282 E2.01111
G1 X141.386 Y112.961 E2.04263
G1 X140.894 Y113.306 E2.06261
G1 X140.197 Y113.6 E2.08777
G1 X140.178 Y114.393 E2.11416
G1 X140.869 Y114.675 E2.13898
G1 X141.591 Y115.218 E2.16903
G1 X142.189 Y115.937 E2.20013
G1 X142.631 Y116.864 E2.23429
G1 X142.8 Y117.975 E2.27167
G1 X142.8 Y119.205 E2.31258
G1 X142.578 Y120.286 E2.34928
G1 X142.095 Y121.194 E2.38349
G1 X141.793 Y121.579 E2.39976
G1 X141.069 Y122.162 E2.43068
G1 X140.076 Y122.656 E2.46757
G1 X139.118 Y122.792 E2.49975
G1 X137.595 Y122.8 E2.55041
G1 X136.543 Y122.48 E2.58698
G1 X135.858 Y122.142 E2.61239
G1 X134.921 Y121.296 E2.65437
G1 X134.379 Y120.17 E2.69594
G1 X133.598 Y120.217 E2.72196
G1 X133.546 Y120.383 E2.72775
G1 X133.096 Y121.214 E2.75918
G1 X132.478 Y121.885 E2.78952
G1 X131.557 Y122.477 E2.82593
G1 X130.429 Y122.783 E2.86481
G1 X129.364 Y122.722 E2.90029
G1 X128.642 Y122.526 E2.92517
G1 X127.729 Y122.059 E2.95928
G1 X126.994 Y121.337 E2.99355
G1 X126.694 Y120.904 E3.01107
G1 X126.384 Y120.169 E3.0376
G1 X125.638 Y120.214 E3.06245
G1 X124.654 Y120.035 E3.09572
G1 X124.522 Y120.265 E3.10454
G1 X124.229 Y120.611 E3.11962
G1 X123.545 Y121.162 E3.14883
G1 X122.553 Y121.656 E3.18569
G1 X121.65 Y121.788 E3.21605
G1 X105.271 Y121.8 E3.76081
G1 X104.19 Y121.578 E3.79752
G1 X103.282 Y121.095 E3.83172
G1 X102.897 Y120.793 E3.848
G1 X102.314 Y120.069 E3.87892
G1 X101.82 Y119.077 E3.91578
G1 X101.688 Y118.174 E3.94613
G1 X101.676 Y101.795 E4.4909
G1 X101.898 Y100.714 E4.5276
G1 X102.381 Y99.806 E4.56181
G1 X102.683 Y99.421 E4.57808
M204 S2000
M205 X10 Y10
G0 F3000 X102.934 Y99.733
M204 S1000
M205 X8 Y8
G1 F2400 X103.627 Y99.175 E4.60767
G1 X104.519 Y98.731 E4.64082
G1 X105.36 Y98.608 E4.66908
G1 X121.64 Y98.6 E5.21056
G1 X122.626 Y98.802 E5.24404
G1 X123.431 Y99.226 E5.2743
G1 X123.742 Y99.458 E5.2872
G1 X124.273 Y100.116 E5.31532
G1 X124.443 Y100.435 E5.32735
G1 X125.025 Y100.266 E5.3475
G1 X126.256 Y100.19 E5.38852
G1 X126.704 Y100.257 E5.40359
G1 X126.805 Y99.807 E5.41893
G1 X127.232 Y99.02 E5.44871
G1 X127.78 Y98.425 E5.47561
G1 X128.608 Y97.893 E5.50835
G1 X129.614 Y97.62 E5.54302
G1 X130.571 Y97.675 E5.5749
G1 X131.211 Y97.848 E5.59695
G1 X132.034 Y98.27 E5.62771
G1 X132.726 Y98.949 E5.65996
G1 X132.937 Y99.251 E5.67221
G1 X133.357 Y100.247 E5.70816
G1 X134.27 Y100.191 E5.73859
G1 X134.687 Y100.253 E5.75261
G1 X135.119 Y99.15 E5.79201
G1 X135.705 Y98.513 E5.8208
G1 X136.21 Y98.104 E5.84241
G1 X137.036 Y97.701 E5.87298
G1 X137.682 Y97.604 E5.89471
G1 X139.163 Y97.6 E5.94396
G1 X140.15 Y97.802 E5.97747
G1 X140.955 Y98.226 E6.00773
G1 X141.267 Y98.458 E6.02067
G1 X141.825 Y99.151 E6.05026
G1 X142.27 Y100.045 E6.08347
G1 X142.4 Y101.008 E6.11579
G1 X142.384 Y102.19 E6.15511
G1 X142.237 Y103.086 E6.18531
G1 X141.623 Y104.171 E6.22677
G1 X140.779 Y104.889 E6.26363
G1 X139.939 Y105.236 E6.29386
G1 X139.761 Y105.277 E6.29993
G1 X139.793 Y106.431 E6.33833
G1 X139.762 Y106.642 E6.34542
G1 X140.839 Y107.118 E6.38459
G1 X141.624 Y107.818 E6.41957
G1 X142.16 Y108.657 E6.45268
G1 X142.39 Y109.76 E6.49016
G1 X142.318 Y110.636 E6.51939
G1 X142.157 Y111.217 E6.53944
G1 X141.72 Y112.044 E6.57055
G1 X141.099 Y112.682 E6.60017
G1 X140.703 Y112.952 E6.61611
G1 X139.764 Y113.348 E6.65
G1 X139.798 Y113.557 E6.65705
G1 X139.772 Y114.659 E6.69371
G1 X140.669 Y115.025 E6.72593
G1 X141.312 Y115.508 E6.75268
G1 X141.851 Y116.157 E6.78074
G1 X142.245 Y116.983 E6.81118
G1 X142.4 Y117.975 E6.84457
G1 X142.4 Y119.164 E6.88412
G1 X142.198 Y120.15 E6.91759
G1 X141.774 Y120.955 E6.94785
G1 X141.542 Y121.267 E6.96079
G1 X140.849 Y121.825 E6.99038
G1 X139.957 Y122.269 E7.02352
G1 X139.116 Y122.392 E7.05179
G1 X137.653 Y122.4 E7.10045
G1 X136.72 Y122.121 E7.13284
G1 X136.084 Y121.807 E7.15643
G1 X135.246 Y121.051 E7.19397
G1 X134.796 Y120.116 E7.22848
G1 X134.716 Y119.749 E7.24097
G1 X133.667 Y119.812 E7.27593
G1 X133.295 Y119.745 E7.2885
G1 X133.194 Y120.192 E7.30374
G1 X132.766 Y120.982 E7.33362
G1 X132.22 Y121.575 E7.36043
G1 X131.392 Y122.107 E7.39317
G1 X130.386 Y122.38 E7.42784
G1 X129.429 Y122.325 E7.45972
G1 X128.789 Y122.152 E7.48177
G1 X127.966 Y121.73 E7.51253
G1 X127.274 Y121.051 E7.54478
G1 X127.063 Y120.749 E7.55703
G1 X126.643 Y119.753 E7.59298
G1 X125.665 Y119.812 E7.62557
G1 X124.439 Y119.589 E7.66702
G1 X124.213 Y120.012 E7.68297
G1 X123.978 Y120.299 E7.6953
G1 X123.325 Y120.825 E7.72319
G1 X122.433 Y121.269 E7.75633
G1 X121.592 Y121.392 E7.7846
G1 X105.312 Y121.4 E8.32608
G1 X104.326 Y121.198 E8.35955
G1 X103.521 Y120.774 E8.38981
G1 X103.209 Y120.542 E8.40275
G1 X102.651 Y119.849 E8.43234
G1 X102.207 Y118.957 E8.46548
G1 X102.084 Y118.116 E8.49375
G1 X102.076 Y101.836 E9.03522
G1 X102.278 Y100.85 E9.0687
G1 X102.702 Y100.045 E9.09896
G1 X102.934 Y99.733 E9.11189
M204 S2000
M205 X10 Y10
G0 F3000 X103.225 Y100.012
M204 S1000
M205 X8 Y8
G1 F2400 X103.843 Y99.514 E9.13829
G1 X104.639 Y99.118 E9.16786
G1 X105.418 Y99.004 E9.19405
G1 X121.599 Y99 E9.73223
G1 X122.489 Y99.182 E9.76244
G1 X123.244 Y99.58 E9.79083
G1 X123.464 Y99.749 E9.80006
G1 X123.962 Y100.367 E9.82645
G1 X124.234 Y100.913 E9.84674
G1 X125.095 Y100.662 E9.87657
G1 X126.281 Y100.589 E9.91609
G1 X127.028 Y100.719 E9.94131
G1 X127.157 Y99.998 E9.96567
G1 X127.562 Y99.252 E9.99391
G1 X128.038 Y98.735 E10.01728
G1 X128.773 Y98.263 E10.04633
G1 X129.657 Y98.023 E10.0768
G1 X130.506 Y98.072 E10.10508
G1 X131.066 Y98.223 E10.12437
G1 X131.796 Y98.597 E10.15166
G1 X132.405 Y99.188 E10.17988
G1 X132.568 Y99.407 E10.18896
G1 X132.933 Y100.272 E10.22019
G1 X132.977 Y100.696 E10.23437
G1 X133.136 Y100.66 E10.23979
G1 X134.294 Y100.59 E10.27837
G1 X135.042 Y100.722 E10.30364
G1 X135.08 Y100.348 E10.31614
G1 X135.465 Y99.364 E10.35128
G1 X135.957 Y98.824 E10.37558
G1 X136.43 Y98.441 E10.39582
G1 X137.153 Y98.088 E10.42258
G1 X137.741 Y98 E10.44236
G1 X139.123 Y98 E10.48832
G1 X140.013 Y98.182 E10.51854
G1 X140.768 Y98.58 E10.54692
G1 X140.988 Y98.749 E10.55615
G1 X141.486 Y99.367 E10.58255
G1 X141.883 Y100.164 E10.61216
G1 X142 Y101.004 E10.64037
G1 X141.989 Y102.125 E10.67766
G1 X141.853 Y102.952 E10.70553
G1 X141.31 Y103.912 E10.74222
G1 X140.568 Y104.544 E10.77464
G1 X139.787 Y104.866 E10.80273
G1 X139.284 Y104.962 E10.81977
G1 X139.366 Y105.476 E10.83708
G1 X139.393 Y106.442 E10.86922
G1 X139.284 Y107.012 E10.88852
G1 X139.703 Y107.054 E10.90253
G1 X140.62 Y107.459 E10.93587
G1 X141.318 Y108.081 E10.96696
G1 X141.783 Y108.809 E10.9957
G1 X141.986 Y109.785 E11.02885
G1 X141.919 Y110.603 E11.05615
G1 X141.784 Y111.067 E11.07222
G1 X141.393 Y111.806 E11.10003
G1 X140.812 Y112.403 E11.12774
G1 X140.548 Y112.583 E11.13836
G1 X139.73 Y112.928 E11.16789
G1 X139.278 Y112.973 E11.183
G1 X139.398 Y113.547 E11.2025
G1 X139.37 Y114.702 E11.24093
G1 X139.294 Y115.024 E11.25194
G1 X139.76 Y115.086 E11.26757
G1 X140.469 Y115.375 E11.29304
G1 X141.033 Y115.798 E11.31648
G1 X141.513 Y116.376 E11.34147
G1 X141.859 Y117.102 E11.36822
G1 X142 Y117.975 E11.39763
G1 X142 Y119.123 E11.43582
G1 X141.818 Y120.013 E11.46603
G1 X141.42 Y120.768 E11.49442
G1 X141.251 Y120.988 E11.50365
G1 X140.633 Y121.486 E11.53004
G1 X139.837 Y121.882 E11.55961
G1 X139.058 Y121.996 E11.5858
G1 X137.71 Y122 E11.63063
G1 X136.897 Y121.762 E11.65881
G1 X136.31 Y121.472 E11.68059
G1 X135.572 Y120.806 E11.71365
G1 X135.156 Y119.942 E11.74554
G1 X135.044 Y119.298 E11.76728
G1 X134.864 Y119.34 E11.77343
G1 X133.694 Y119.41 E11.81242
G1 X132.973 Y119.279 E11.83679
G1 X132.842 Y120.002 E11.86123
G1 X132.438 Y120.748 E11.88944
G1 X131.962 Y121.265 E11.91282
G1 X131.227 Y121.737 E11.94187
G1 X130.343 Y121.977 E11.97234
G1 X129.494 Y121.928 E12.00062
G1 X128.934 Y121.777 E12.01991
G1 X128.204 Y121.403 E12.04719
G1 X127.595 Y120.812 E12.07542
G1 X127.432 Y120.593 E12.0845
G1 X127.067 Y119.728 E12.11573
G1 X127.023 Y119.304 E12.1299
G1 X126.864 Y119.34 E12.13533
G1 X125.693 Y119.41 E12.17434
G1 X124.665 Y119.223 E12.2091
G1 X124.253 Y119.081 E12.22359
G1 X123.896 Y119.768 E12.24934
G1 X123.727 Y119.988 E12.25857
G1 X123.109 Y120.486 E12.28497
G1 X122.313 Y120.882 E12.31454
G1 X121.534 Y120.996 E12.34072
G1 X105.353 Y121 E12.8789
G1 X104.463 Y120.818 E12.90912
G1 X103.708 Y120.42 E12.93751
G1 X103.488 Y120.251 E12.94673
G1 X102.99 Y119.633 E12.97313
G1 X102.594 Y118.837 E13.0027
G1 X102.48 Y118.058 E13.02889
G1 X102.476 Y101.877 E13.56707
G1 X102.658 Y100.987 E13.59728
G1 X103.056 Y100.232 E13.62567
G1 X103.225 Y100.012 E13.6349
M204 S2000
M205 X10 Y10
G0 F3000 X103.513 Y100.293
M204 S1000
M205 X8 Y8
G1 F2400 X104.059 Y99.853 E13.65822
G1 X104.759 Y99.505 E13.68422
G1 X105.476 Y99.4 E13.70832
G1 X121.558 Y99.4 E14.24321
G1 X122.354 Y99.563 E14.27024
G1 X123.058 Y99.934 E14.2967
G1 X123.183 Y100.037 E14.30209
G1 X123.623 Y100.583 E14.32541
G1 X123.944 Y101.229 E14.34941
G1 X123.988 Y101.402 E14.35534
G1 X125.165 Y101.058 E14.39613
G1 X126.258 Y100.991 E14.43255
G1 X127.422 Y101.194 E14.47185
G1 X127.399 Y100.915 E14.48116
G1 X127.54 Y100.133 E14.50759
G1 X127.892 Y99.484 E14.53214
G1 X128.296 Y99.045 E14.55199
G1 X128.938 Y98.633 E14.57736
G1 X129.7 Y98.426 E14.60362
G1 X130.441 Y98.469 E14.62831
G1 X130.921 Y98.598 E14.64484
G1 X131.561 Y98.926 E14.66876
G1 X132.127 Y99.475 E14.69499
G1 X132.217 Y99.606 E14.70027
G1 X132.564 Y100.428 E14.72995
G1 X132.599 Y101.222 E14.75638
G1 X133.16 Y101.059 E14.77581
G1 X134.27 Y100.992 E14.8128
G1 X135.423 Y101.195 E14.85174
G1 X135.452 Y100.494 E14.87507
G1 X135.81 Y99.58 E14.90772
G1 X136.209 Y99.135 E14.9276
G1 X136.65 Y98.778 E14.94647
G1 X137.271 Y98.475 E14.96945
G1 X137.741 Y98.4 E14.98528
G1 X139.082 Y98.4 E15.02989
G1 X139.878 Y98.563 E15.05691
G1 X140.582 Y98.934 E15.08338
G1 X140.707 Y99.037 E15.08876
G1 X141.147 Y99.583 E15.11209
G1 X141.495 Y100.283 E15.13809
G1 X141.6 Y101.002 E15.16226
G1 X141.594 Y102.06 E15.19745
G1 X141.469 Y102.818 E15.223
G1 X140.996 Y103.655 E15.25497
G1 X140.359 Y104.198 E15.28281
G1 X139.635 Y104.496 E15.30885
G1 X139.216 Y104.568 E15.32299
G1 X138.773 Y104.54 E15.33776
G1 X138.841 Y104.74 E15.34478
G1 X138.966 Y105.487 E15.36997
G1 X138.993 Y106.453 E15.40212
G1 X138.794 Y107.399 E15.43427
G1 X139.541 Y107.42 E15.45912
G1 X140.401 Y107.8 E15.4904
G1 X141.012 Y108.344 E15.51761
G1 X141.406 Y108.961 E15.54195
G1 X141.582 Y109.81 E15.57079
G1 X141.52 Y110.57 E15.59615
G1 X141.43 Y110.88 E15.60689
G1 X141.066 Y111.568 E15.63278
G1 X140.525 Y112.124 E15.65858
G1 X140.393 Y112.214 E15.66389
G1 X139.575 Y112.559 E15.69342
G1 X138.79 Y112.595 E15.71956
G1 X138.997 Y113.585 E15.7532
G1 X138.97 Y114.692 E15.79003
G1 X138.784 Y115.377 E15.81364
G1 X139.609 Y115.456 E15.8412
G1 X140.269 Y115.725 E15.86491
G1 X140.756 Y116.09 E15.88515
G1 X141.173 Y116.593 E15.90688
G1 X141.474 Y117.224 E15.93013
G1 X141.6 Y117.975 E15.95546
G1 X141.6 Y119.082 E15.99228
G1 X141.437 Y119.878 E16.0193
G1 X141.066 Y120.582 E16.04577
G1 X140.963 Y120.707 E16.05116
G1 X140.417 Y121.147 E16.07448
G1 X139.717 Y121.495 E16.10048
G1 X139 Y121.6 E16.12458
G1 X137.767 Y121.6 E16.16559
G1 X137.074 Y121.403 E16.18956
G1 X136.536 Y121.137 E16.20952
G1 X135.898 Y120.561 E16.23811
G1 X135.54 Y119.819 E16.26551
G1 X135.419 Y119.122 E16.28904
G1 X135.439 Y118.767 E16.30086
G1 X134.84 Y118.941 E16.32161
G1 X133.721 Y119.008 E16.35889
G1 X132.576 Y118.8 E16.3976
G1 X132.601 Y119.085 E16.40712
G1 X132.46 Y119.867 E16.43354
G1 X132.108 Y120.516 E16.4581
G1 X131.704 Y120.955 E16.47794
G1 X131.062 Y121.367 E16.50332
G1 X130.3 Y121.574 E16.52958
G1 X129.559 Y121.531 E16.55427
G1 X129.079 Y121.402 E16.5708
G1 X128.439 Y121.074 E16.59472
G1 X127.873 Y120.525 E16.62094
G1 X127.783 Y120.394 E16.62623
G1 X127.436 Y119.572 E16.6559
G1 X127.401 Y118.778 E16.68234
G1 X126.84 Y118.941 E16.70177
G1 X125.721 Y119.008 E16.73905
G1 X124.737 Y118.829 E16.77232
G1 X123.978 Y118.559 E16.79911
G1 X123.886 Y118.929 E16.81179
G1 X123.542 Y119.582 E16.83634
G1 X123.439 Y119.707 E16.84173
G1 X122.893 Y120.147 E16.86505
G1 X122.193 Y120.495 E16.89105
G1 X121.476 Y120.6 E16.91515
G1 X105.394 Y120.6 E17.45004
G1 X104.598 Y120.437 E17.47707
G1 X103.894 Y120.066 E17.50354
G1 X103.769 Y119.963 E17.50892
G1 X103.329 Y119.417 E17.53225
G1 X102.981 Y118.717 E17.55825
G1 X102.876 Y118 E17.58235
G1 X102.876 Y101.918 E18.11724
G1 X103.039 Y101.122 E18.14426
G1 X103.41 Y100.418 E18.17073
G1 X103.513 Y100.293 E18.17612
M204 S2000
M205 X10 Y10
G0 F3000 X103.764 Y100.604
M204 S1000
M205 X8 Y8
G1 F2400 X104.275 Y100.192 E18.19795
G1 X104.881 Y99.891 E18.22045
G1 X105.476 Y99.8 E18.24047
G1 X121.517 Y99.8 E18.774
G1 X122.219 Y99.944 E18.79783
G1 X122.872 Y100.288 E18.82238
G1 X123.284 Y100.799 E18.84421
G1 X123.586 Y101.407 E18.86679
G1 X123.676 Y102.046 E18.88826
G1 X124.177 Y101.763 E18.9074
G1 X125.235 Y101.454 E18.94405
G1 X126.234 Y101.393 E18.97734
G1 X127.271 Y101.574 E19.01236
G1 X127.991 Y101.861 E19.03814
G1 X127.894 Y101.622 E19.04671
G1 X127.793 Y100.986 E19.06813
G1 X127.923 Y100.265 E19.0925
G1 X128.218 Y99.722 E19.11305
G1 X128.557 Y99.353 E19.12972
G1 X129.103 Y99.003 E19.15129
G1 X129.743 Y98.829 E19.17335
G1 X130.418 Y98.868 E19.19584
G1 X130.738 Y98.954 E19.20686
G1 X131.327 Y99.256 E19.22887
G1 X131.849 Y99.762 E19.25305
G1 X132.167 Y100.515 E19.28024
G1 X132.202 Y101.305 E19.30654
G1 X132.017 Y101.855 E19.32584
G1 X132.229 Y101.747 E19.33375
G1 X133.23 Y101.455 E19.36844
G1 X134.246 Y101.394 E19.40229
G1 X135.34 Y101.585 E19.43923
G1 X136.015 Y101.89 E19.46386
G1 X135.82 Y101.294 E19.48472
G1 X135.849 Y100.575 E19.50865
G1 X136.155 Y99.794 E19.53655
G1 X136.507 Y99.402 E19.55407
G1 X136.865 Y99.118 E19.56927
G1 X137.394 Y98.86 E19.58885
G1 X137.741 Y98.8 E19.60056
G1 X139.041 Y98.8 E19.6438
