;FLAVOR:Marlin
;TIME:969
;Filament used: 0.75897m
;Layer height: 0.2
;MINX:118.2
;MINY:100.6
;MINZ:0.2
;MAXX:141.8
;MAXY:117.8
;MAXZ:16
;TARGET_MACHINE.NAME:Anycubic Kobra
;Generated with Cura_SteamEngine 5.6.0
M140 S60
M105
M190 S60
M104 S200
M105
M109 S200
M82 ;absolute extrusion mode
G28 ;Home
G1 Z15.0 F1200 ;Move the platform down 15mm
;Prime the extruder
G92 E0
G1 F200 E3
G92 E0
G92 E0
G92 E0
G1 F2400 E-6
;LAYER_COUNT:80
;LAYER:0
M107
M204 S2000
M205 X10 Y10
G0 F3000 X119.207 Y101.821 Z0.2
M204 S1000
M205 X8 Y8
;TYPE:SKIRT
G1 F2400 E0
G1 X119.931 Y101.238 E0.03092
G1 X120.923 Y100.744 E0.06778
G1 X121.826 Y100.612 E0.09813
G1 X138.205 Y100.6 E0.6429
G1 X139.286 Y100.822 E0.6796
G1 X140.194 Y101.305 E0.71381
G1 X140.579 Y101.607 E0.73008
G1 X141.162 Y102.331 E0.761
G1 X141.656 Y103.323 E0.79786
G1 X141.788 Y104.226 E0.82821
G1 X141.8 Y114.205 E1.16012
G1 X141.578 Y115.286 E1.19682
G1 X141.095 Y116.194 E1.23103
G1 X140.793 Y116.579 E1.2473
G1 X140.069 Y117.162 E1.27822
G1 X139.077 Y117.656 E1.31508
G1 X138.174 Y117.788 E1.34543
G1 X121.795 Y117.8 E1.8902
G1 X120.714 Y117.578 E1.9269
G1 X119.806 Y117.095 E1.96111
G1 X119.421 Y116.793 E1.97738
G1 X118.838 Y116.069 E2.0083
G1 X118.344 Y115.077 E2.04516
G1 X118.212 Y114.174 E2.07551
G1 X118.2 Y104.195 E2.40742
G1 X118.422 Y103.114 E2.44412
G1 X118.905 Y102.206 E2.47833
G1 X119.207 Y101.821 E2.4946
M204 S2000
M205 X10 Y10
G0 F3000 X119.458 Y102.133
M204 S1000
M205 X8 Y8
G1 F2400 X120.151 Y101.575 E2.5242
G1 X121.043 Y101.131 E2.55734
G1 X121.884 Y101.008 E2.5856
G1 X138.164 Y101 E3.12708
G1 X139.15 Y101.202 E3.16056
G1 X139.955 Y101.626 E3.19082
G1 X140.267 Y101.858 E3.20375
G1 X140.825 Y102.551 E3.23334
G1 X141.269 Y103.443 E3.26648
G1 X141.392 Y104.284 E3.29475
G1 X141.4 Y114.164 E3.62336
G1 X141.198 Y115.15 E3.65684
G1 X140.774 Y115.955 E3.6871
G1 X140.542 Y116.267 E3.70003
G1 X139.849 Y116.825 E3.72962
G1 X138.957 Y117.269 E3.76276
G1 X138.116 Y117.392 E3.79103
G1 X121.836 Y117.4 E4.33251
G1 X120.85 Y117.198 E4.36598
G1 X120.045 Y116.774 E4.39624
G1 X119.733 Y116.542 E4.40917
G1 X119.175 Y115.849 E4.43877
G1 X118.731 Y114.957 E4.47191
G1 X118.608 Y114.116 E4.50018
G1 X118.6 Y104.236 E4.82879
G1 X118.802 Y103.25 E4.86226
G1 X119.226 Y102.445 E4.89252
G1 X119.458 Y102.133 E4.90546
M204 S2000
M205 X10 Y10
G0 F3000 X119.749 Y102.412
M204 S1000
M205 X8 Y8
G1 F2400 X120.367 Y101.914 E4.93185
G1 X121.163 Y101.518 E4.96142
G1 X121.942 Y101.404 E4.98761
G1 X138.123 Y101.4 E5.52579
G1 X139.013 Y101.582 E5.55601
G1 X139.768 Y101.98 E5.58439
G1 X139.988 Y102.149 E5.59362
G1 X140.486 Y102.767 E5.62002
G1 X140.882 Y103.563 E5.64959
G1 X140.996 Y104.342 E5.67577
G1 X141 Y114.123 E6.00109
G1 X140.818 Y115.013 E6.0313
G1 X140.42 Y115.768 E6.05969
G1 X140.251 Y115.988 E6.06892
G1 X139.633 Y116.486 E6.09532
G1 X138.837 Y116.882 E6.12489
G1 X138.058 Y116.996 E6.15107
G1 X121.877 Y117 E6.68925
G1 X120.987 Y116.818 E6.71947
G1 X120.232 Y116.42 E6.74786
G1 X120.012 Y116.251 E6.75708
G1 X119.514 Y115.633 E6.78348
G1 X119.118 Y114.837 E6.81305
G1 X119.004 Y114.058 E6.83924
G1 X119 Y104.277 E7.16455
G1 X119.182 Y103.387 E7.19477
G1 X119.58 Y102.632 E7.22316
G1 X119.749 Y102.412 E7.23238
M204 S2000
M205 X10 Y10
G0 F3000 X120.037 Y102.693
M204 S1000
M205 X8 Y8
G1 F2400 X119.934 Y102.818 E7.23777
G1 X119.563 Y103.522 E7.26424
G1 X119.4 Y104.318 E7.29126
G1 X119.4 Y114 E7.61329
G1 X119.505 Y114.717 E7.63739
G1 X119.853 Y115.417 E7.66339
G1 X120.293 Y115.963 E7.68671
G1 X120.418 Y116.066 E7.6921
G1 X121.122 Y116.437 E7.71857
G1 X121.918 Y116.6 E7.74559
G1 X138 Y116.6 E8.28048
G1 X138.717 Y116.495 E8.30458
G1 X139.417 Y116.147 E8.33058
G1 X139.963 Y115.707 E8.3539
G1 X140.066 Y115.582 E8.35929
G1 X140.437 Y114.878 E8.38576
G1 X140.6 Y114.082 E8.41278
G1 X140.6 Y104.4 E8.73481
G1 X140.495 Y103.683 E8.75891
G1 X140.147 Y102.983 E8.78491
G1 X139.707 Y102.437 E8.80823
G1 X139.582 Y102.334 E8.81362
G1 X138.878 Y101.963 E8.84009
G1 X138.082 Y101.8 E8.86711
G1 X122 Y101.8 E9.402
G1 X121.283 Y101.905 E9.4261
G1 X120.583 Y102.253 E9.4521
G1 X120.037 Y102.693 E9.47543
M204 S2000
M205 X10 Y10
G0 F3000 X120.288 Y103.004
M204 S1000
M205 X8 Y8
G1 F2400 X120.799 Y102.592 E9.49726
G1 X121.405 Y102.291 E9.51976
G1 X122 Y102.2 E9.53978
G1 X138.041 Y102.2 E10.07331
G1 X138.743 Y102.344 E10.09715
G1 X139.396 Y102.688 E10.12169
G1 X139.808 Y103.199 E10.14353
G1 X140.109 Y103.805 E10.16603
G1 X140.2 Y104.4 E10.18605
G1 X140.2 Y114.041 E10.50671
G1 X140.056 Y114.743 E10.53055
G1 X139.712 Y115.396 E10.55509
G1 X139.201 Y115.808 E10.57693
G1 X138.595 Y116.109 E10.59943
G1 X138 Y116.2 E10.61945
G1 X121.959 Y116.2 E11.15298
G1 X121.257 Y116.056 E11.17681
G1 X120.604 Y115.712 E11.20136
G1 X120.192 Y115.201 E11.22319
G1 X119.891 Y114.595 E11.2457
G1 X119.8 Y114 E11.26572
G1 X119.8 Y104.359 E11.58638
G1 X119.944 Y103.657 E11.61021
G1 X120.288 Y103.004 E11.63476
M204 S2000
M205 X10 Y10
G0 F3000 X120.605 Y103.262
M204 S1000
M205 X8 Y8
G1 F2400 X120.977 Y102.95 E11.65091
G1 X121.526 Y102.677 E11.6713
G1 X122 Y102.6 E11.68727
G1 X138 Y102.6 E12.21944
G1 X138.606 Y102.724 E12.24001
G1 X139.138 Y103.005 E12.26002
G1 X139.45 Y103.377 E12.27617
G1 X139.723 Y103.926 E12.29656
G1 X139.8 Y104.4 E12.31253
G1 X139.8 Y114 E12.63183
G1 X139.676 Y114.606 E12.6524
G1 X139.395 Y115.138 E12.67242
G1 X139.023 Y115.45 E12.68856
G1 X138.474 Y115.723 E12.70896
G1 X138 Y115.8 E12.72493
G1 X122 Y115.8 E13.25709
G1 X121.394 Y115.676 E13.27766
G1 X120.862 Y115.395 E13.29768
G1 X120.55 Y115.023 E13.31382
G1 X120.277 Y114.474 E13.33422
G1 X120.2 Y114 E13.35019
G1 X120.2 Y104.4 E13.66949
G1 X120.324 Y103.794 E13.69006
G1 X120.605 Y103.262 E13.71007
M204 S2000
M205 X10 Y10
G0 F3000 X120.923 Y103.517
M204 S1000
M205 X8 Y8
G1 F2400 X120.678 Y103.981 E13.72752
G1 X120.6 Y104.4 E13.7417
G1 X120.6 Y114 E14.06099
G1 X120.662 Y114.351 E14.07285
G1 X120.908 Y114.845 E14.0912
G1 X121.117 Y115.077 E14.10159
G1 X121.581 Y115.322 E14.11904
G1 X122 Y115.4 E14.13322
G1 X138 Y115.4 E14.66538
G1 X138.351 Y115.338 E14.67724
G1 X138.845 Y115.092 E14.69559
G1 X139.077 Y114.883 E14.70598
G1 X139.322 Y114.419 E14.72343
G1 X139.4 Y114 E14.7376
G1 X139.4 Y104.4 E15.0569
G1 X139.338 Y104.049 E15.06876
G1 X139.092 Y103.555 E15.08711
G1 X138.883 Y103.323 E15.0975
G1 X138.419 Y103.078 E15.11495
G1 X138 Y103 E15.12912
G1 X122 Y103 E15.66129
G1 X121.649 Y103.062 E15.67314
G1 X121.155 Y103.308 E15.6915
G1 X120.923 Y103.517 E15.70188
M204 S2000
M205 X10 Y10
G0 F3000 X121.207 Y103.799
M204 S1000
M205 X8 Y8
G1 F2400 X121.345 Y103.66 E15.7084
G1 X121.727 Y103.454 E15.72283
G1 X122 Y103.4 E15.73209
G1 X138 Y103.4 E16.26425
G1 X138.338 Y103.47 E16.27573
G1 X138.601 Y103.607 E16.28559
G1 X138.74 Y103.745 E16.29211
G1 X138.946 Y104.127 E16.30654
G1 X139 Y104.4 E16.3158
G1 X139 Y114 E16.6351
G1 X138.93 Y114.338 E16.64658
G1 X138.793 Y114.601 E16.65644
G1 X138.655 Y114.74 E16.66295
G1 X138.273 Y114.946 E16.67739
G1 X138 Y115 E16.68665
G1 X122 Y115 E17.21881
G1 X121.662 Y114.93 E17.23029
G1 X121.399 Y114.793 E17.24015
G1 X121.26 Y114.655 E17.24667
G1 X121.054 Y114.273 E17.2611
G1 X121 Y114 E17.27036
G1 X121 Y104.4 E17.58965
G1 X121.07 Y104.062 E17.60113
G1 X121.207 Y103.799 E17.611
M204 S2000
M205 X10 Y10
G0 F3000 X121.839 Y104.281
M204 S1000
M205 X8 Y8
G1 F2400 X122 Y104.2 E17.61699
G1 X138 Y104.2 E18.14915
G1 X138.119 Y104.239 E18.15332
G1 X138.2 Y104.4 E18.15931
G1 X138.2 Y114 E18.47861
G1 X138.161 Y114.119 E18.48278
G1 X138 Y114.2 E18.48877
G1 X122 Y114.2 E19.02093
G1 X121.881 Y114.161 E19.0251
G1 X121.8 Y114 E19.03109
G1 X121.8 Y104.4 E19.35039
G1 X121.839 Y104.281 E19.35455
M204 S2000
M205 X10 Y10
G0 F3000 X121.55 Y104.004
M204 S1000
M205 X8 Y8
G1 F2400 X121.82 Y103.843 E19.36501
G1 X122 Y103.8 E19.37116
G1 X138 Y103.8 E19.90333
G1 X138.244 Y103.859 E19.91168
G1 X138.396 Y103.95 E19.91757
G1 X138.557 Y104.22 E19.92802
G1 X138.6 Y104.4 E19.93418
G1 X138.6 Y114 E20.25348
G1 X138.541 Y114.244 E20.26183
G1 X138.45 Y114.396 E20.26772
G1 X138.18 Y114.557 E20.27817
G1 X138 Y114.6 E20.28433
G1 X122 Y114.6 E20.81649
G1 X121.756 Y114.541 E20.82484
G1 X121.604 Y114.45 E20.83073
G1 X121.443 Y114.18 E20.84119
G1 X121.4 Y114 E20.84734
G1 X121.4 Y104.4 E21.16664
G1 X121.459 Y104.156 E21.17499
G1 X121.55 Y104.004 E21.18088
M204 S2000
M205 X10 Y10
G1 F2400 E15.18088
;MESH:Lego 2x2 v2.stl(1)
G0 F3000 X122.414 Y104.814
G0 X137.8 Y113.8
M204 S1000
M205 X8 Y8
;TYPE:WALL-OUTER
G1 F2400 E21.18088
G1 F1500 X137.8 Y104.6 E21.48688
G1 X122.2 Y104.6 E22.00573
G1 X122.2 Y113.8 E22.31173
G1 X137.8 Y113.8 E22.83059
M204 S2000
M205 X10 Y10
G0 F3000 X137.8 Y113.6
G0 X137.4 Y113.4
M204 S1000
M205 X8 Y8
;TYPE:WALL-INNER
G1 F1500 X137.4 Y105 E23.10997
G1 X122.6 Y105 E23.60222
G1 X122.6 Y113.4 E23.88161
G1 X137.4 Y113.4 E24.37386
M204 S2000
M205 X10 Y10
G0 F3000 X137 Y113
M204 S1000
M205 X8 Y8
G1 F1500 X137 Y105.4 E24.62663
G1 X123 Y105.4 E25.09228
G1 X123 Y113 E25.34505
G1 X137 Y113 E25.81069
M204 S2000
M205 X10 Y10
G0 F3000 X136.6 Y112.6
M204 S1000
M205 X8 Y8
G1 F1500 X136.6 Y105.8 E26.03686
G1 X123.4 Y105.8 E26.4759
G1 X123.4 Y112.6 E26.70207
G1 X136.6 Y112.6 E27.1411
M204 S2000
M205 X10 Y10
G0 F3000 X136.2 Y112.2
M204 S1000
M205 X8 Y8
G1 F1500 X136.2 Y106.2 E27.34066
G1 X123.8 Y106.2 E27.75309
G1 X123.8 Y112.2 E27.95265
G1 X136.2 Y112.2 E28.36507
M204 S2000
M205 X10 Y10
G0 F3000 X135.82 Y111.82
M204 S1000
M205 X8 Y8
;TYPE:SKIN
G1 F1500 X135.82 Y106.58 E28.53936
G1 X124.18 Y106.58 E28.9265
G1 X124.18 Y111.82 E29.10079
G1 X135.82 Y111.82 E29.48793
M204 S2000
M205 X10 Y10
G0 F3000 X135.619 Y107.335
M204 S1000
M205 X8 Y8
G1 F1500 X135.064 Y106.78 E29.51404
M204 S2000
M205 X10 Y10
G0 F3000 X134.498 Y106.78
M204 S1000
M205 X8 Y8
G1 F1500 X135.619 Y107.9 E29.56674
M204 S2000
M205 X10 Y10
G0 F3000 X135.619 Y108.466
M204 S1000
M205 X8 Y8
G1 F1500 X133.933 Y106.78 E29.64605
M204 S2000
M205 X10 Y10
G0 F3000 X133.367 Y106.78
M204 S1000
M205 X8 Y8
G1 F1500 X135.619 Y109.032 E29.75198
M204 S2000
M205 X10 Y10
G0 F3000 X135.619 Y109.598
M204 S1000
M205 X8 Y8
G1 F1500 X132.801 Y106.78 E29.88453
M204 S2000
M205 X10 Y10
G0 F3000 X132.236 Y106.78
M204 S1000
M205 X8 Y8
G1 F1500 X135.619 Y110.163 E30.04365
M204 S2000
M205 X10 Y10
G0 F3000 X135.619 Y110.729
M204 S1000
M205 X8 Y8
G1 F1500 X131.67 Y106.78 E30.2294
M204 S2000
M205 X10 Y10
G0 F3000 X131.104 Y106.78
M204 S1000
M205 X8 Y8
G1 F1500 X135.619 Y111.295 E30.44177
M204 S2000
M205 X10 Y10
G0 F3000 X135.379 Y111.62
M204 S1000
M205 X8 Y8
G1 F1500 X130.538 Y106.78 E30.66946
M204 S2000
M205 X10 Y10
G0 F3000 X129.973 Y106.78
M204 S1000
M205 X8 Y8
G1 F1500 X134.813 Y111.62 E30.89711
M204 S2000
M205 X10 Y10
G0 F3000 X134.247 Y111.62
M204 S1000
M205 X8 Y8
G1 F1500 X129.407 Y106.78 E31.12477
M204 S2000
M205 X10 Y10
G0 F3000 X128.841 Y106.78
M204 S1000
M205 X8 Y8
G1 F1500 X133.682 Y111.62 E31.35246
M204 S2000
M205 X10 Y10
G0 F3000 X133.116 Y111.62
M204 S1000
M205 X8 Y8
G1 F1500 X128.276 Y106.78 E31.58011
M204 S2000
M205 X10 Y10
G0 F3000 X127.71 Y106.78
M204 S1000
M205 X8 Y8
G1 F1500 X132.55 Y111.62 E31.80777
M204 S2000
M205 X10 Y10
G0 F3000 X131.985 Y111.62
M204 S1000
M205 X8 Y8
G1 F1500 X127.144 Y106.78 E32.03545
M204 S2000
M205 X10 Y10
G0 F3000 X126.579 Y106.78
M204 S1000
M205 X8 Y8
G1 F1500 X131.419 Y111.62 E32.26311
M204 S2000
M205 X10 Y10
G0 F3000 X130.853 Y111.62
M204 S1000
M205 X8 Y8
G1 F1500 X126.013 Y106.78 E32.49077
M204 S2000
M205 X10 Y10
G0 F3000 X125.447 Y106.78
M204 S1000
M205 X8 Y8
G1 F1500 X130.287 Y111.62 E32.71843
M204 S2000
M205 X10 Y10
G0 F3000 X129.722 Y111.62
M204 S1000
M205 X8 Y8
G1 F1500 X124.882 Y106.78 E32.94609
M204 S2000
M205 X10 Y10
G0 F3000 X124.379 Y106.843
M204 S1000
M205 X8 Y8
G1 F1500 X129.156 Y111.62 E33.17079
M204 S2000
M205 X10 Y10
G0 F3000 X128.59 Y111.62
M204 S1000
M205 X8 Y8
G1 F1500 X124.379 Y107.408 E33.36888
M204 S2000
M205 X10 Y10
G0 F3000 X124.379 Y107.974
M204 S1000
M205 X8 Y8
G1 F1500 X128.025 Y111.62 E33.54038
M204 S2000
M205 X10 Y10
G0 F3000 X127.459 Y111.62
M204 S1000
M205 X8 Y8
G1 F1500 X124.379 Y108.54 E33.68525
M204 S2000
M205 X10 Y10
G0 F3000 X124.379 Y109.105
M204 S1000
M205 X8 Y8
G1 F1500 X126.893 Y111.62 E33.80353
M204 S2000
M205 X10 Y10
G0 F3000 X126.328 Y111.62
M204 S1000
M205 X8 Y8
G1 F1500 X124.379 Y109.671 E33.8952
M204 S2000
M205 X10 Y10
G0 F3000 X124.379 Y110.237
M204 S1000
M205 X8 Y8
G1 F1500 X125.762 Y111.62 E33.96025
M204 S2000
M205 X10 Y10
G0 F3000 X125.196 Y111.62
M204 S1000
M205 X8 Y8
G1 F1500 X124.379 Y110.802 E33.99871
M204 S2000
M205 X10 Y10
G0 F3000 X124.379 Y111.368
M204 S1000
M205 X8 Y8
G1 F1500 X124.631 Y111.62 E34.01056
M204 S2000
M205 X10 Y10
G1 F2400 E28.01056
;MESH:NONMESH
G0 F600 X124.631 Y111.62 Z0.4
G0 F3000 X125.349 Y113.58
G0 X125.349 Y114.665
G0 X125.349 Y116.435
;TIME_ELAPSED:39.865200
;LAYER:1
M106 S255
M204 S1000
M205 X8 Y8
;TYPE:SUPPORT
G1 F2400 E34.01056
G1 F2250 X125.349 Y114.9 E34.06161
G1 X123.938 Y114.9 E34.10854
G1 X123.837 Y115.183 E34.11854
G1 X123.738 Y115.19 E34.12184
G1 X123.738 Y116.4 E34.16208
G1 X124.922 Y116.401 E34.20146
G1 X125.927 Y116.482 E34.235
G1 X126.991 Y116.827 E34.2722
G1 X128.016 Y117.422 E34.31162
G1 X128.016 Y114.9 E34.3955
G1 X130.683 Y114.9 E34.48421
G1 X130.683 Y117.304 E34.56416
G1 X131.604 Y117.496 E34.59546
G1 X132.076 Y117.393 E34.61152
G1 X132.507 Y117.182 E34.62748
G1 X133.245 Y116.755 E34.65584
G1 X133.35 Y116.727 E34.65946
G1 X133.35 Y114.9 E34.72022
G1 X136.053 Y114.9 E34.81013
G1 X136.172 Y115.2 E34.82086
G1 X136.263 Y115.2 E34.82389
G1 X136.262 Y116.4 E34.8638
G1 X136.017 Y116.4 E34.87195
G1 X136.017 Y114.9 E34.92184
M204 S3500
M205 X10 Y10
G1 F2400 E28.92184
;MESH:Lego 2x2 v2.stl(1)
G0 F4500 X136.017 Y113.58
G0 X137.8 Y113.8
M204 S1000
M205 X8 Y8
;TYPE:WALL-OUTER
G1 F2400 E34.92184
G1 F1500 X137.8 Y104.6 E35.22783
G1 X122.2 Y104.6 E35.74669
G1 X122.2 Y113.8 E36.05268
G1 X137.8 Y113.8 E36.57154
M204 S3500
M205 X10 Y10
G0 F4500 X137.8 Y113.6
G0 X137.4 Y113.4
M204 S1000
M205 X8 Y8
;TYPE:WALL-INNER
G1 F2250 X137.4 Y105 E36.85093
G1 X122.6 Y105 E37.34318
G1 X122.6 Y113.4 E37.62256
G1 X137.4 Y113.4 E38.11481
M204 S3500
M205 X10 Y10
G0 F4500 X137 Y113
M204 S1000
M205 X8 Y8
G1 F2250 X137 Y105.4 E38.36759
G1 X123 Y105.4 E38.83323
G1 X123 Y113 E39.08601
G1 X137 Y113 E39.55165
M204 S3500
M205 X10 Y10
G0 F4500 X136.6 Y112.6
M204 S1000
M205 X8 Y8
G1 F2250 X136.6 Y105.8 E39.77782
G1 X123.4 Y105.8 E40.21685
G1 X123.4 Y112.6 E40.44302
G1 X136.6 Y112.6 E40.88205
M204 S3500
M205 X10 Y10
G0 F4500 X136.2 Y112.2
M204 S1000
M205 X8 Y8
G1 F2250 X136.2 Y106.2 E41.08161
G1 X123.8 Y106.2 E41.49404
G1 X123.8 Y112.2 E41.6936
G1 X136.2 Y112.2 E42.10603
M204 S3500
M205 X10 Y10
G0 F4500 X135.82 Y111.82
M204 S1000
M205 X8 Y8
;TYPE:SKIN
G1 F1500 X135.82 Y106.58 E42.28031
G1 X124.18 Y106.58 E42.66746
G1 X124.18 Y111.82 E42.84174
G1 X135.82 Y111.82 E43.22889
M204 S3500
M205 X10 Y10
G0 F4500 X135.618 Y111.02
M204 S1000
M205 X8 Y8
G1 F1500 X135.018 Y111.62 E43.25711
M204 S3500
M205 X10 Y10
G0 F4500 X134.452 Y111.62
M204 S1000
M205 X8 Y8
G1 F1500 X135.618 Y110.454 E43.31196
M204 S3500
M205 X10 Y10
G0 F4500 X135.618 Y109.888
M204 S1000
M205 X8 Y8
G1 F1500 X133.887 Y111.62 E43.3934
M204 S3500
M205 X10 Y10
G0 F4500 X133.321 Y111.62
M204 S1000
M205 X8 Y8
G1 F1500 X135.618 Y109.322 E43.50147
M204 S3500
M205 X10 Y10
G0 F4500 X135.618 Y108.757
M204 S1000
M205 X8 Y8
G1 F1500 X132.755 Y111.62 E43.63614
M204 S3500
M205 X10 Y10
G0 F4500 X132.19 Y111.62
M204 S1000
M205 X8 Y8
G1 F1500 X135.618 Y108.191 E43.7974
