;FLAVOR:Marlin
;TIME:5716
;Filament used: 5.33646m
;Layer height: 0.2
;MINX:73.189
;MINY:68.345
;MINZ:0.2
;MAXX:146.8
;MAXY:151.649
;MAXZ:7.2
;TARGET_MACHINE.NAME:Anycubic Kobra
;Generated with Cura_SteamEngine 5.6.0
M140 S60
M105
M190 S60
M104 S200
M105
M109 S200
M82 ;absolute extrusion mode
G28 ;Home
G1 Z15.0 F1200 ;Move the platform down 15mm
;Prime the extruder
G92 E0
G1 F200 E3
G92 E0
G92 E0
G92 E0
G1 F2400 E-6
;LAYER_COUNT:36
;LAYER:0
M107
M204 S2000
M205 X10 Y10
G0 F3000 X75.74 Y84.001 Z0.2
M204 S1000
M205 X8 Y8
;TYPE:SKIRT
G1 F2400 E0
G1 X76.609 Y83.347 E0.03617
G1 X77.928 Y82.625 E0.08619
G1 X79.211 Y82.25 E0.13064
G1 X80.477 Y82.062 E0.17321
G1 X81.805 Y82.147 E0.21747
G1 X83.082 Y82.43 E0.26098
G1 X84.339 Y82.941 E0.30611
G1 X85.654 Y83.811 E0.35855
G1 X86.416 Y84.547 E0.39379
G1 X86.659 Y84.856 E0.40686
G1 X131.248 Y68.969 E1.98122
G1 X132.491 Y68.625 E2.02412
G1 X134.046 Y68.386 E2.07644
G1 X134.996 Y68.345 E2.10807
G1 X136.461 Y68.438 E2.15689
G1 X138.191 Y68.781 E2.21555
G1 X139.3 Y69.15 E2.25443
G1 X140.817 Y69.869 E2.31026
G1 X141.728 Y70.442 E2.34606
G1 X143.103 Y71.556 E2.40492
G1 X144.006 Y72.508 E2.44856
G1 X144.755 Y73.495 E2.48977
G1 X145.588 Y74.921 E2.5447
G1 X146.035 Y75.948 E2.58195
G1 X146.504 Y77.518 E2.63645
G1 X146.719 Y78.79 E2.67936
G1 X146.8 Y80.114 E2.72348
G1 X146.79 Y140.164 E4.72075
G1 X146.678 Y141.542 E4.76673
G1 X146.436 Y142.783 E4.80878
G1 X146.073 Y143.953 E4.84953
G1 X145.494 Y145.26 E4.89707
G1 X144.661 Y146.646 E4.95086
G1 X143.846 Y147.68 E4.99465
G1 X143.029 Y148.514 E5.03348
G1 X141.705 Y149.574 E5.08989
G1 X140.751 Y150.166 E5.12723
G1 X139.103 Y150.924 E5.18756
G1 X137.867 Y151.306 E5.23059
G1 X136.629 Y151.543 E5.27252
G1 X135.259 Y151.649 E5.31822
G1 X133.601 Y151.564 E5.37344
G1 X132.343 Y151.343 E5.41592
G1 X131.224 Y151.023 E5.45463
G1 X86.7 Y135.157 E7.02672
G1 X86.51 Y135.405 E7.03711
G1 X85.501 Y136.368 E7.0835
G1 X84.233 Y137.138 E7.13284
G1 X82.887 Y137.672 E7.181
G1 X81.619 Y137.912 E7.22392
G1 X80.324 Y137.941 E7.26701
G1 X79.301 Y137.805 E7.30133
G1 X77.745 Y137.31 E7.35564
G1 X76.66 Y136.756 E7.39616
G1 X75.568 Y135.861 E7.44312
G1 X74.618 Y134.807 E7.49031
G1 X74.019 Y133.78 E7.52986
G1 X73.457 Y132.425 E7.57865
G1 X73.214 Y130.781 E7.63392
G1 X73.243 Y129.522 E7.67581
G1 X73.438 Y128.464 E7.71159
G1 X73.945 Y127.015 E7.76265
G1 X74.677 Y125.842 E7.80864
G1 X75.52 Y124.875 E7.8513
G1 X76.461 Y124.074 E7.89241
G1 X77.839 Y123.342 E7.9443
G1 X78.938 Y122.949 E7.98312
G1 X80.446 Y122.725 E8.03383
G1 X81.859 Y122.807 E8.0809
G1 X82.815 Y123.007 E8.11339
G1 X84.29 Y123.558 E8.16576
G1 X85.453 Y124.314 E8.2119
G1 X86.372 Y125.114 E8.25242
G1 X86.592 Y125.396 E8.26432
G1 X121.613 Y112.201 E9.50905
G1 X122.08 Y111.986 E9.52615
G1 X122.552 Y111.644 E9.54554
G1 X122.753 Y111.423 E9.55548
G1 X123.06 Y110.916 E9.57519
G1 X123.225 Y110.322 E9.59569
G1 X123.225 Y109.689 E9.61675
G1 X123.063 Y109.092 E9.63732
G1 X122.749 Y108.572 E9.65753
G1 X122.551 Y108.355 E9.6673
G1 X122.08 Y108.01 E9.68671
G1 X121.641 Y107.812 E9.70273
G1 X86.594 Y94.606 E10.94841
G1 X86.331 Y94.923 E10.96211
G1 X85.331 Y95.808 E11.00652
G1 X84.239 Y96.517 E11.04983
G1 X82.757 Y97.049 E11.1022
G1 X81.816 Y97.233 E11.13409
G1 X80.226 Y97.277 E11.18699
G1 X79.098 Y97.104 E11.22495
G1 X77.667 Y96.658 E11.2748
G1 X76.341 Y95.85 E11.32645
G1 X75.365 Y95.034 E11.36876
G1 X74.449 Y93.864 E11.41818
G1 X73.805 Y92.659 E11.46362
G1 X73.395 Y91.409 E11.50738
G1 X73.189 Y90.257 E11.5463
G1 X73.259 Y88.73 E11.59714
G1 X73.423 Y87.844 E11.62711
G1 X74.121 Y86.053 E11.69105
G1 X74.551 Y85.36 E11.71817
G1 X75.74 Y84.001 E11.77823
M204 S2000
M205 X10 Y10
G0 F3000 X76.013 Y84.296
M204 S1000
M205 X8 Y8
G1 F2400 X76.849 Y83.667 E11.81303
G1 X78.078 Y82.999 E11.85955
G1 X79.27 Y82.646 E11.9009
G1 X80.497 Y82.464 E11.94216
G1 X81.718 Y82.538 E11.98284
G1 X82.995 Y82.821 E12.02635
G1 X84.149 Y83.296 E12.06785
G1 X85.403 Y84.125 E12.11785
G1 X86.138 Y84.835 E12.15184
G1 X86.52 Y85.33 E12.17264
G1 X131.355 Y69.355 E13.75568
G1 X132.598 Y69.011 E13.79858
G1 X134.063 Y68.786 E13.84788
G1 X135.013 Y68.745 E13.8795
G1 X136.384 Y68.831 E13.92519
G1 X138.065 Y69.161 E13.98217
G1 X139.174 Y69.53 E14.02105
G1 X140.605 Y70.208 E14.07371
G1 X141.477 Y70.753 E14.10791
G1 X142.813 Y71.832 E14.16503
G1 X143.687 Y72.75 E14.20719
G1 X144.436 Y73.737 E14.2484
G1 X145.221 Y75.081 E14.30017
G1 X145.668 Y76.108 E14.33742
G1 X146.121 Y77.632 E14.3903
G1 X146.32 Y78.815 E14.4302
G1 X146.4 Y80.114 E14.47349
G1 X146.391 Y140.132 E16.46969
G1 X146.285 Y141.465 E16.51417
G1 X146.043 Y142.706 E16.55622
G1 X145.707 Y143.791 E16.594
G1 X145.128 Y145.098 E16.64155
G1 X144.346 Y146.399 E16.69203
G1 X143.56 Y147.4 E16.73436
G1 X142.743 Y148.234 E16.7732
G1 X141.494 Y149.234 E16.82641
G1 X140.54 Y149.826 E16.86375
G1 X138.984 Y150.542 E16.92072
G1 X137.791 Y150.913 E16.96228
G1 X136.598 Y151.144 E17.00269
G1 X135.228 Y151.25 E17.0484
G1 X133.67 Y151.17 E17.10028
G1 X132.453 Y150.958 E17.14137
G1 X131.334 Y150.638 E17.18008
G1 X86.554 Y134.68 E18.76122
G1 X86.234 Y135.116 E18.7792
G1 X85.258 Y136.048 E18.82409
G1 X84.085 Y136.766 E18.86983
G1 X82.775 Y137.286 E18.91671
G1 X81.609 Y137.512 E18.95621
G1 X80.377 Y137.544 E18.9972
G1 X79.354 Y137.408 E19.03153
G1 X77.927 Y136.954 E19.08133
G1 X76.881 Y136.42 E19.1204
G1 X75.865 Y135.593 E19.16397
G1 X74.944 Y134.571 E19.20973
G1 X74.389 Y133.627 E19.24615
G1 X73.846 Y132.317 E19.29331
G1 X73.61 Y130.722 E19.34694
G1 X73.643 Y129.533 E19.3865
G1 X73.816 Y128.596 E19.41819
G1 X74.309 Y127.188 E19.46781
G1 X74.98 Y126.104 E19.51021
G1 X75.779 Y125.18 E19.55084
G1 X76.686 Y124.408 E19.59046
G1 X77.974 Y123.719 E19.63904
G1 X79.036 Y123.339 E19.67656
G1 X80.468 Y123.127 E19.7247
G1 X81.777 Y123.199 E19.76831
G1 X82.733 Y123.399 E19.80079
G1 X84.108 Y123.917 E19.84966
G1 X85.19 Y124.616 E19.89251
G1 X86.109 Y125.416 E19.93303
G1 X86.45 Y125.877 E19.9521
G1 X121.778 Y112.566 E21.20776
G1 X122.279 Y112.336 E21.22609
G1 X122.822 Y111.941 E21.24843
G1 X123.074 Y111.664 E21.26088
G1 X123.43 Y111.077 E21.28371
G1 X123.625 Y110.375 E21.30795
G1 X123.625 Y109.636 E21.33253
G1 X123.435 Y108.934 E21.35672
G1 X123.07 Y108.331 E21.38016
G1 X122.82 Y108.056 E21.39252
G1 X122.28 Y107.661 E21.41477
G1 X121.806 Y107.447 E21.43207
G1 X86.468 Y94.131 E22.68809
G1 X86.023 Y94.667 E22.71126
G1 X85.113 Y95.473 E22.7517
G1 X84.061 Y96.156 E22.79341
G1 X82.678 Y96.657 E22.84234
G1 X81.805 Y96.833 E22.87196
G1 X80.215 Y96.877 E22.92486
G1 X79.217 Y96.722 E22.95845
G1 X77.832 Y96.29 E23.00671
G1 X76.598 Y95.543 E23.05468
G1 X75.653 Y94.753 E23.09565
G1 X74.802 Y93.675 E23.14133
G1 X74.158 Y92.47 E23.18677
G1 X73.789 Y91.339 E23.22634
G1 X73.591 Y90.232 E23.26375
G1 X73.659 Y88.748 E23.31316
G1 X73.809 Y87.954 E23.34003
G1 X74.463 Y86.261 E23.4004
G1 X74.852 Y85.623 E23.42525
G1 X76.013 Y84.296 E23.48389
M204 S2000
M205 X10 Y10
G0 F3000 X76.284 Y84.593
M204 S1000
M205 X8 Y8
G1 F2400 X77.04 Y84.019 E23.51546
G1 X78.235 Y83.37 E23.56069
G1 X79.329 Y83.042 E23.59868
G1 X80.518 Y82.866 E23.63866
G1 X81.631 Y82.929 E23.67574
G1 X82.908 Y83.212 E23.71924
G1 X83.958 Y83.65 E23.75708
G1 X85.152 Y84.439 E23.80468
G1 X85.86 Y85.123 E23.83742
G1 X86.379 Y85.805 E23.86593
G1 X131.462 Y69.741 E25.45774
G1 X132.705 Y69.397 E25.50063
G1 X134.08 Y69.186 E25.5469
G1 X135.03 Y69.145 E25.57853
G1 X136.358 Y69.23 E25.62279
G1 X137.939 Y69.541 E25.67638
G1 X139.048 Y69.91 E25.71526
G1 X140.394 Y70.548 E25.7648
G1 X141.226 Y71.065 E25.79738
G1 X142.523 Y72.108 E25.85273
G1 X143.397 Y73.026 E25.89489
G1 X144.091 Y73.939 E25.93304
G1 X144.854 Y75.241 E25.98323
G1 X145.301 Y76.268 E26.02048
G1 X145.727 Y77.699 E26.07014
G1 X145.921 Y78.84 E26.10864
G1 X146 Y80.114 E26.15109
G1 X145.992 Y140.101 E28.14627
G1 X145.892 Y141.388 E28.1892
G1 X145.65 Y142.629 E28.23125
G1 X145.341 Y143.629 E28.26607
G1 X144.762 Y144.936 E28.31361
G1 X144.004 Y146.192 E28.3624
G1 X143.274 Y147.12 E28.40167
G1 X142.457 Y147.954 E28.44051
G1 X141.283 Y148.894 E28.49053
G1 X140.329 Y149.486 E28.52787
G1 X138.865 Y150.16 E28.58148
G1 X137.714 Y150.52 E28.62159
G1 X136.567 Y150.745 E28.66046
G1 X135.197 Y150.851 E28.70617
G1 X133.738 Y150.776 E28.75476
G1 X132.563 Y150.573 E28.79442
G1 X131.444 Y150.253 E28.83313
G1 X86.404 Y134.202 E30.42345
G1 X85.958 Y134.827 E30.44898
G1 X85.014 Y135.728 E30.49239
G1 X83.876 Y136.425 E30.53677
G1 X82.663 Y136.901 E30.58011
G1 X81.597 Y137.112 E30.61626
G1 X80.43 Y137.147 E30.65509
G1 X79.407 Y137.011 E30.68941
G1 X78.109 Y136.598 E30.73472
G1 X77.1 Y136.083 E30.77239
G1 X76.162 Y135.325 E30.81251
G1 X75.269 Y134.334 E30.85687
G1 X74.734 Y133.424 E30.89198
G1 X74.234 Y132.208 E30.93571
G1 X74.01 Y130.732 E30.98537
G1 X74.037 Y129.604 E31.0229
G1 X74.194 Y128.728 E31.0525
G1 X74.673 Y127.36 E31.10071
G1 X75.283 Y126.366 E31.13949
G1 X76.082 Y125.442 E31.18012
G1 X76.912 Y124.741 E31.21626
G1 X78.163 Y124.072 E31.26344
G1 X79.131 Y123.73 E31.29759
G1 X80.491 Y123.528 E31.34332
G1 X81.695 Y123.591 E31.38342
G1 X82.651 Y123.791 E31.4159
G1 X83.93 Y124.277 E31.46141
G1 X84.927 Y124.918 E31.50083
G1 X85.816 Y125.692 E31.54004
G1 X86.309 Y126.357 E31.56757
G1 X121.943 Y112.931 E32.8341
G1 X122.464 Y112.692 E32.85316
G1 X122.797 Y112.482 E32.86626
G1 X123.104 Y112.226 E32.87955
G1 X123.384 Y111.919 E32.89337
G1 X123.632 Y111.56 E32.90788
G1 X123.799 Y111.233 E32.9201
G1 X123.942 Y110.82 E32.93463
G1 X124.025 Y110.416 E32.94835
G1 X124.025 Y109.594 E32.97569
G1 X123.934 Y109.153 E32.99067
G1 X123.803 Y108.775 E33.00397
G1 X123.627 Y108.432 E33.01679
G1 X123.385 Y108.083 E33.03092
G1 X123.096 Y107.765 E33.04521
G1 X122.796 Y107.514 E33.05822
G1 X122.469 Y107.308 E33.07108
G1 X121.958 Y107.077 E33.08973
G1 X86.341 Y93.656 E34.35567
G1 X85.757 Y94.369 E34.38632
G1 X84.895 Y95.138 E34.42474
G1 X83.884 Y95.795 E34.46484
G1 X82.596 Y96.265 E34.51045
G1 X81.792 Y96.433 E34.53776
G1 X80.274 Y96.481 E34.58828
G1 X79.336 Y96.34 E34.61983
G1 X77.998 Y95.923 E34.66644
G1 X76.855 Y95.236 E34.71079
G1 X75.941 Y94.472 E34.75042
G1 X75.116 Y93.427 E34.7947
G1 X74.538 Y92.345 E34.8355
G1 X74.183 Y91.269 E34.87318
G1 X73.993 Y90.207 E34.90907
G1 X74.059 Y88.766 E34.95705
G1 X74.202 Y88.03 E34.98198
G1 X74.805 Y86.469 E35.03764
G1 X75.194 Y85.831 E35.06249
G1 X76.284 Y84.593 E35.11736
M204 S2000
M205 X10 Y10
G0 F3000 X76.556 Y84.889
M204 S1000
M205 X8 Y8
G1 F2400 X77.231 Y84.371 E35.14566
G1 X78.39 Y83.742 E35.18951
G1 X79.388 Y83.438 E35.22421
G1 X80.54 Y83.267 E35.26295
G1 X81.544 Y83.32 E35.29639
G1 X82.821 Y83.603 E35.33989
G1 X83.768 Y84.004 E35.3741
G1 X84.902 Y84.753 E35.4193
G1 X85.542 Y85.365 E35.44875
G1 X86.238 Y86.28 E35.48699
G1 X131.569 Y70.127 E37.08756
G1 X132.812 Y69.783 E37.13046
G1 X134.097 Y69.586 E37.1737
G1 X135.047 Y69.545 E37.20533
G1 X136.332 Y69.629 E37.24816
G1 X137.813 Y69.921 E37.29836
G1 X138.922 Y70.29 E37.33724
G1 X140.183 Y70.888 E37.38366
G1 X141.015 Y71.405 E37.41624
G1 X142.234 Y72.384 E37.46824
G1 X143.079 Y73.269 E37.50893
G1 X143.746 Y74.142 E37.54547
G1 X144.487 Y75.401 E37.59406
G1 X144.934 Y76.428 E37.63132
G1 X145.333 Y77.767 E37.67779
G1 X145.522 Y78.865 E37.71484
G1 X145.6 Y80.114 E37.75647
G1 X145.593 Y140.071 E39.75065
G1 X145.499 Y141.312 E39.79204
G1 X145.267 Y142.512 E39.83269
G1 X144.975 Y143.467 E39.86591
G1 X144.396 Y144.774 E39.91345
G1 X143.689 Y145.945 E39.95895
G1 X142.988 Y146.84 E39.99676
G1 X142.171 Y147.674 E40.03559
G1 X141.072 Y148.554 E40.08242
G1 X140.118 Y149.146 E40.11976
G1 X138.745 Y149.778 E40.17003
G1 X137.637 Y150.127 E40.20867
G1 X136.49 Y150.352 E40.24755
G1 X135.167 Y150.452 E40.29167
G1 X133.806 Y150.382 E40.337
G1 X132.673 Y150.188 E40.37523
G1 X131.554 Y149.868 E40.41394
G1 X86.254 Y133.724 E42.01345
G1 X85.653 Y134.566 E42.04785
G1 X84.77 Y135.408 E42.08844
G1 X83.667 Y136.084 E42.13146
G1 X82.583 Y136.509 E42.17019
G1 X81.583 Y136.712 E42.20413
G1 X80.483 Y136.75 E42.24074
G1 X79.46 Y136.614 E42.27506
G1 X78.291 Y136.242 E42.31586
G1 X77.319 Y135.746 E42.35216
G1 X76.459 Y135.057 E42.38881
G1 X75.593 Y134.096 E42.43183
G1 X75.104 Y133.272 E42.4637
G1 X74.622 Y132.1 E42.50585
G1 X74.41 Y130.74 E42.55163
G1 X74.431 Y129.675 E42.58706
G1 X74.588 Y128.799 E42.61666
G1 X75.037 Y127.532 E42.66137
G1 X75.624 Y126.575 E42.69871
G1 X76.34 Y125.748 E42.73509
G1 X77.139 Y125.073 E42.76988
G1 X78.296 Y124.449 E42.8136
G1 X79.225 Y124.121 E42.84637
G1 X80.51 Y123.93 E42.88958
G1 X81.615 Y123.983 E42.92638
G1 X82.509 Y124.165 E42.95672
G1 X83.75 Y124.637 E43.00088
G1 X84.664 Y125.22 E43.03694
G1 X85.523 Y125.968 E43.07482
G1 X86.168 Y126.837 E43.11082
G1 X122.108 Y113.296 E44.38821
G1 X122.649 Y113.048 E44.40801
G1 X123.034 Y112.805 E44.42315
G1 X123.386 Y112.511 E44.43841
G1 X123.696 Y112.171 E44.45371
G1 X123.974 Y111.769 E44.46996
G1 X124.168 Y111.389 E44.48416
G1 X124.329 Y110.925 E44.50049
G1 X124.422 Y110.473 E44.51584
G1 X124.451 Y109.98 E44.53226
G1 X124.422 Y109.537 E44.54703
G1 X124.321 Y109.048 E44.56364
G1 X124.172 Y108.619 E44.57874
G1 X123.969 Y108.223 E44.59354
G1 X123.7 Y107.835 E44.60925
G1 X123.372 Y107.474 E44.62547
G1 X123.037 Y107.194 E44.63999
G1 X122.652 Y106.951 E44.65513
G1 X122.123 Y106.712 E44.67444
G1 X86.185 Y93.17 E45.95179
G1 X86.088 Y93.333 E45.9581
G1 X85.489 Y94.072 E45.98974
G1 X84.677 Y94.803 E46.02608
G1 X83.704 Y95.435 E46.06466
G1 X82.514 Y95.873 E46.10684
G1 X81.71 Y96.041 E46.13416
G1 X80.263 Y96.081 E46.1823
G1 X79.455 Y95.958 E46.20949
G1 X78.164 Y95.556 E46.25446
G1 X77.112 Y94.929 E46.29519
G1 X76.228 Y94.19 E46.33352
G1 X75.468 Y93.237 E46.37406
G1 X74.917 Y92.218 E46.41259
G1 X74.577 Y91.199 E46.44832
G1 X74.395 Y90.181 E46.48271
G1 X74.452 Y88.842 E46.52729
G1 X74.595 Y88.106 E46.55223
G1 X75.147 Y86.677 E46.60318
G1 X75.536 Y86.039 E46.62803
G1 X76.556 Y84.889 E46.67916
M204 S2000
M205 X10 Y10
G0 F3000 X76.802 Y85.205
M204 S1000
M205 X8 Y8
G1 F2400 X77.422 Y84.723 E46.70528
G1 X78.548 Y84.112 E46.74789
G1 X79.447 Y83.834 E46.77918
G1 X80.559 Y83.669 E46.81657
G1 X81.457 Y83.711 E46.84647
G1 X82.734 Y83.994 E46.88998
G1 X83.549 Y84.339 E46.91941
G1 X84.627 Y85.044 E46.96225
G1 X85.224 Y85.608 E46.98957
G1 X85.905 Y86.5 E47.0269
G1 X86.053 Y86.771 E47.03717
G1 X131.676 Y70.513 E48.64806
G1 X132.919 Y70.169 E48.69096
G1 X134.114 Y69.986 E48.73117
G1 X135.064 Y69.945 E48.7628
G1 X136.305 Y70.028 E48.80416
G1 X137.687 Y70.301 E48.85102
G1 X138.796 Y70.67 E48.88989
G1 X139.972 Y71.228 E48.93318
G1 X140.804 Y71.745 E48.96576
G1 X141.945 Y72.661 E49.01443
G1 X142.762 Y73.513 E49.05369
G1 X143.402 Y74.346 E49.08863
G1 X144.12 Y75.561 E49.13557
G1 X144.567 Y76.588 E49.17282
G1 X144.939 Y77.836 E49.21614
G1 X145.123 Y78.89 E49.25172
G1 X145.2 Y80.114 E49.29251
G1 X145.194 Y140.042 E51.28573
G1 X145.106 Y141.237 E51.32558
G1 X144.884 Y142.395 E51.3648
G1 X144.592 Y143.35 E51.39801
G1 X144.031 Y144.611 E51.44392
G1 X143.374 Y145.699 E51.48619
G1 X142.702 Y146.56 E51.52252
G1 X141.885 Y147.394 E51.56135
G1 X140.861 Y148.214 E51.60498
G1 X139.907 Y148.806 E51.64232
G1 X138.624 Y149.397 E51.68931
G1 X137.56 Y149.734 E51.72643
G1 X136.413 Y149.959 E51.7653
G1 X135.138 Y150.053 E51.80783
G1 X133.873 Y149.988 E51.84996
G1 X132.783 Y149.803 E51.88673
G1 X131.664 Y149.483 E51.92544
G1 X86.071 Y133.234 E53.53529
G1 X85.954 Y133.456 E53.54364
G1 X85.348 Y134.305 E53.57833
G1 X84.527 Y135.088 E53.61607
G1 X83.519 Y135.712 E53.6555
G1 X82.501 Y136.117 E53.69194
G1 X81.567 Y136.312 E53.72367
G1 X80.536 Y136.353 E53.75799
G1 X79.513 Y136.217 E53.79232
G1 X78.473 Y135.886 E53.82862
G1 X77.538 Y135.409 E53.86353
